X:23
T:Tipperary Hunter
B:Terry "Cuz" Teahan "Sliabh Luachra on Parade" 1980
Z:Patrick Cavanagh
M:6/8
L:1/8
R:Jig
K:G
A | B2B B2A | GAB D2B | A2A A2G | FGA D2A | 
B2B B2A | GAB D2E | GAB dBA | BGG G2 :| 
G | FEE BEE | GEE BAG | FDD ADD | FEF DGG | 
FEE BEE | GEE E2F | GAB cBA | BGG G2 :|| 

